resources/svg/mood-tongue-o.svg

<svg width="15" height="15" viewBox="0 0 15 15" fill="none" xmlns="http://www.w3.org/2000/svg">
<path d="M4 5.5H5M10 5.5H11M4 8.5H11M5.5 8.5V10.5C5.5 11.6046 6.39543 12.5 7.5 12.5C8.60457 12.5 9.5 11.6046 9.5 10.5V8.5M7.5 14.5C3.63401 14.5 0.5 11.366 0.5 7.5C0.5 3.63401 3.63401 0.5 7.5 0.5C11.366 0.5 14.5 3.63401 14.5 7.5C14.5 11.366 11.366 14.5 7.5 14.5Z" stroke="black"/>
</svg>

<svg viewBox="0 0 15 15" fill="none" xmlns="http://www.w3.org/2000/svg" fill="currentColor"><path d="M4 5.5h1m5 0h1m-7 3h7m-5.5 0v2a2 2 0 104 0v-2m-2 6a7 7 0 110-14 7 7 0 010 14z" stroke="currentColor"/></svg>
